svgs/sharp-solid/diagram-subtask.svg

<svg xmlns="http://www.w3.org/2000/svg" viewBox="0 0 512 512"><!--! Font Awesome Pro 6.6.0 by @fontawesome - https://fontawesome.com License - https://fontawesome.com/license (Commercial License) Copyright 2024 Fonticons, Inc. --><path d="M0 32l512 0 0 192-352 0 0 128 64 0 0-64 64 0 160 0 64 0 0 64 0 64 0 64-64 0-160 0-64 0 0-64-96 0-32 0 0-32 0-160L0 224 0 32zM448 352l-160 0 0 64 160 0 0-64z"/></svg>

<svg xmlns="http://www.w3.org/2000/svg" viewBox="0 0 512 512"><!--! Font Awesome Pro 6.4.0 by @fontawesome - https://fontawesome.com License - https://fontawesome.com/license (Commercial License) Copyright 2023 Fonticons, Inc. --><path d="M0 32H512V224H160V352h64V288h64H448h64v64 64 64H448 288 224V416H128 96V384 224H0V32zM448 352H288v64H448V352z"/></svg>
